icons/shopping-bag-17.svg

<svg width="16" height="17" viewBox="0 0 16 17" fill="none" xmlns="http://www.w3.org/2000/svg">
<path d="M6.36361 7.07548C6.36361 6.77424 6.11941 6.53003 5.81816 6.53003C5.51691 6.53003 5.27271 6.77424 5.27271 7.07548C5.27271 7.7988 5.56004 8.49249 6.0715 9.00396C6.58297 9.51542 7.27666 9.80276 7.99998 9.80276C8.7233 9.80276 9.41699 9.51542 9.92845 9.00396C10.4399 8.49249 10.7273 7.7988 10.7273 7.07548C10.7273 6.77424 10.483 6.53003 10.1818 6.53003C9.88055 6.53003 9.63634 6.77424 9.63634 7.07548C9.63634 7.50947 9.46394 7.92569 9.15706 8.23257C8.85018 8.53945 8.43397 8.71185 7.99998 8.71185C7.56599 8.71185 7.14977 8.53945 6.84289 8.23257C6.53602 7.92569 6.36361 7.50947 6.36361 7.07548Z" fill="#272431"/>
<path fill-rule="evenodd" clip-rule="evenodd" d="M4.29086 2.38456C4.39388 2.24722 4.55554 2.16638 4.72723 2.16638H11.2727C11.4444 2.16638 11.606 2.24722 11.709 2.38456L13.3423 4.56223C13.4127 4.65409 13.4545 4.76899 13.4545 4.89365V12.53C13.4545 12.964 13.2821 13.3802 12.9752 13.6871C12.6683 13.994 12.2521 14.1664 11.8181 14.1664H4.18177C3.74778 14.1664 3.33157 13.994 3.02469 13.6871C2.71781 13.3802 2.54541 12.964 2.54541 12.53V4.89366C2.54541 4.76899 2.58724 4.65409 2.65762 4.56223L4.29086 2.38456ZM11 3.25729L11.8181 4.34821H4.18177L4.99996 3.25729H11ZM3.63632 12.53V5.43911H12.3636V12.53C12.3636 12.6747 12.3061 12.8134 12.2038 12.9157C12.1015 13.018 11.9628 13.0755 11.8181 13.0755H4.18177C4.03711 13.0755 3.89837 13.018 3.79608 12.9157C3.69379 12.8134 3.63632 12.6747 3.63632 12.53Z" fill="#272431"/>
</svg>

<svg xmlns="http://www.w3.org/2000/svg" width="16" height="17" viewBox="0 0 16 17"><path d="M6.364 7.075a.545.545 0 10-1.091 0 2.727 2.727 0 105.454 0 .546.546 0 00-1.09 0 1.636 1.636 0 11-3.273 0z"/><path fill-rule="evenodd" d="M4.29 2.385a.545.545 0 01.437-.219h6.546c.171 0 .333.081.436.219l1.633 2.177c.07.092.112.207.112.332v7.636a1.636 1.636 0 01-1.636 1.636H4.182a1.636 1.636 0 01-1.637-1.636V4.894c0-.125.042-.24.113-.332L4.29 2.385zm6.71.872l.818 1.091H4.182L5 3.258h6zM3.636 12.53V5.44h8.728v7.09a.545.545 0 01-.546.546H4.182a.545.545 0 01-.546-.546z"/></svg>
